X: 8664
T: Crosses Of Annagh, The
R: reel
M: 4/4
K: Adorian
EAAB A2 Bd|e ~g3 edBA|~G3 BA ~E3|DEGE AGED|
EAAB A2 Bd|e2 ggg edBA|GABd gedB|AcBG A2 AG|
EAAB A2 (gag)|e2 (gag) edBA|~G3 BA ~E3|DEGE AGED|
EAAB A2 Bd|e2 ggg edBA|GABd gedB|AcBG A2 Bd|
e ~g3 a2 ga|bgab gedB|~d3 fgfg a|(bag) (agf) gafg|
e ~g3 a2 ga|bgab gedB|GABd gedB|AcBG A2 Bd|
e ~g3 a2 ga|bgab gedB|d3 e g3 a|(bag) (agf) (gfe) dB|
e ~g3 a2 ga|bgab gedB|GABd gedB|AcBG A4|

